img/menu/m-icons-cat11.svg

<svg width="24" height="24" viewBox="0 0 24 24" fill="none" xmlns="http://www.w3.org/2000/svg">
<path d="M16.1248 2.375C13.0875 2.375 10.6248 5.76025 10.6248 9.9375C10.6248 11.0589 11.1693 12.044 11.9998 12.6714V12.6875C11.9998 14.8655 11.9986 16.3047 9.99106 17.978C9.11518 18.7068 8.99775 20.0079 9.72788 20.8838C10.1363 21.3719 10.7238 21.625 11.315 21.625C11.7798 21.625 12.2486 21.4687 12.6336 21.147C15.8099 18.5001 16.0947 15.7166 16.1195 13.375H16.1248V12.6714C16.9554 12.044 17.4998 11.0589 17.4998 9.9375C17.4998 9.019 17.1336 8.18753 16.5465 7.57153C16.5479 7.57016 16.5505 7.56754 16.5519 7.56616C15.4766 6.49091 16.1248 2.375 16.1248 2.375ZM21.6248 7.875C21.6248 7.875 19.9744 8.13475 18.4908 8.05225C18.7383 8.63112 18.8748 9.26788 18.8748 9.9375C18.8748 10.8876 18.5892 11.7677 18.1148 12.5129C20.2213 11.5367 21.6248 9.82613 21.6248 7.875ZM9.43247 7.92334C7.36722 8.07734 5.0625 8.71384 2.85288 11.3662C2.12275 12.2407 2.24018 13.5432 3.11606 14.272C3.50106 14.5937 3.96854 14.75 4.43466 14.75C5.02591 14.75 5.61345 14.4983 6.02182 14.0088C7.2607 12.521 8.3743 12.1353 9.75205 12.0349C9.4413 11.3983 9.24985 10.6938 9.24985 9.9375C9.24985 9.2445 9.31697 8.57234 9.43247 7.92334ZM14.0623 8.5625C14.8213 8.5625 15.4373 9.1785 15.4373 9.9375C15.4373 10.6965 14.8213 11.3125 14.0623 11.3125C13.3033 11.3125 12.6873 10.6965 12.6873 9.9375C12.6873 9.1785 13.3033 8.5625 14.0623 8.5625ZM7.88022 9.55884C7.87609 9.68534 7.87485 9.81238 7.87485 9.9375C7.87485 10.2826 7.90566 10.6251 7.96616 10.9661C7.00366 11.2754 6.0004 11.8877 4.9664 13.1279C4.83578 13.2847 4.63954 13.375 4.43466 13.375C4.32191 13.375 4.15504 13.3486 3.99692 13.2166C3.80717 13.0584 3.76216 12.8551 3.75253 12.7493C3.74291 12.6434 3.75017 12.4368 3.9083 12.2471C5.26817 10.6149 6.62485 9.89159 7.88022 9.55884ZM14.0623 14.75C14.0623 14.75 14.662 14.8476 14.5726 15.4375C14.3389 16.9706 13.6049 18.5488 11.7528 20.0916C11.6249 20.1988 11.4677 20.25 11.3123 20.25C11.1157 20.25 10.9194 20.1666 10.7833 20.0029C10.5399 19.7114 10.5818 19.2768 10.8719 19.0334C12.3225 17.8248 12.9231 16.6517 13.1788 15.4348C13.2269 15.2079 13.423 14.6854 14.0623 14.75Z" fill="#034899"/>
</svg>

<svg width="24" height="24" fill="none" xmlns="http://www.w3.org/2000/svg"><path d="M16.125 2.375c-3.037 0-5.5 3.385-5.5 7.563 0 1.12.544 2.106 1.375 2.733v.017c0 2.178-.001 3.617-2.009 5.29a2.062 2.062 0 0 0 1.324 3.647 2.05 2.05 0 0 0 1.319-.478c3.176-2.647 3.46-5.43 3.485-7.772h.006v-.704A3.418 3.418 0 0 0 17.5 9.938a3.42 3.42 0 0 0-.953-2.366c0-.002.003-.004.005-.006-1.075-1.075-.427-5.191-.427-5.191zm5.5 5.5s-1.65.26-3.134.177a4.78 4.78 0 0 1-.376 4.46c2.106-.975 3.51-2.686 3.51-4.637zm-12.193.048c-2.065.154-4.37.79-6.58 3.443a2.062 2.062 0 1 0 3.17 2.643c1.239-1.488 2.352-1.874 3.73-1.974a4.758 4.758 0 0 1-.502-2.098c0-.692.067-1.365.182-2.014zm4.63.64a1.376 1.376 0 1 1 0 2.75 1.376 1.376 0 0 1 0-2.75zm-6.182.996c-.004.126-.005.253-.005.379 0 .345.03.687.091 1.028-.962.31-1.966.922-3 2.162a.693.693 0 0 1-.97.089.689.689 0 0 1-.088-.97c1.36-1.632 2.717-2.355 3.972-2.688zm6.182 5.191s.6.098.51.688c-.233 1.533-.967 3.11-2.82 4.654a.683.683 0 0 1-.44.158.686.686 0 0 1-.529-.247.69.69 0 0 1 .089-.97c1.45-1.208 2.051-2.381 2.307-3.598.048-.227.244-.75.883-.685z" fill="#034899"/></svg>
